X:1
T:Child Jesus Comes from Heav’nly Height
T:Child Jesus Comes from Heav’nly Height
T:Niels Wilhelm Gade (1817-1890)
T:Tr. from Hans Christian Andersen (1805-1875)
T:Public Domain Courtesy of the Cyber Hymnal™
C:Niels Wilhelm Gade (1817-1890)
Z:Public Domain
Z:Courtesy of the Cyber Hymnal™
%%score ( 1 2 ) ( 3 4 )
L:1/8
Q:1/4=108
M:4/4
K:Eb
V:1 treble 
V:2 treble 
V:3 bass 
V:4 bass 
V:1
 B2 | c2 B2 G2 A2 | B6 [EB]2 | [Ec]2 [DB]2 [EG]2 [EA]2 | [EG]3 [EF] [DF]2 [EG]2 | %5
w: ~|~ ~ ~ ~|~ 1.~Child|Je- sus comes from|heav’n- ly height To|
w: ~|~ ~ ~ ~|~ 2.~Take|cour- age, soul in|grief cast down, For-|
 [DB]2 [Gc]2 [EA]2 [EG]2 | [DF]4 E2 [EB]2 | [Ec]2 [EB]2 [EG]2 [EA]2 | [EG]3 [EF] [DF]2 [FB]2 | %9
w: save us from sin’s|keep- ing; On|man- ger straw, in|dark- some night, The|
w: get the bit- ter|deal- ing; A|child is born in|Da- vid’s town To|
 [Fd]2 [Ec]2 [DB]3 [^F=A] | [^F=A]4 G2 B2 | [Ge]3 [Ge] [EB]2 [Ec]2 | [EA]2 (BA) [EG]2 [DB]2 | %13
w: Bless- èd One lies|sleep- ing. The|star smiles down, the|an- gels * greet, The|
w: touch all souls with|heal- ing. Then|let us go and|seek the * child, Child-|
 [EG]2 [DB]2 [CE]2 [EA]2 | [DG]3 [DF] [CE]2 [Dc]>[Dc] | ([EB]3 [DA]) [EG]2 [Ge]>[Ge] | %16
w: ox- en kiss the|ba- by’s feet; Al- le-|lu- * ia, al- le-|
w: ren like Him, meek,|un- de- filed. Al- le-|lu- * ia, al- le-|
 ([Gd]3 [^Fc]) [GB]2 [=Ec]2 | [FA]2 [EG]2 [DF]3 E | E6 |] %19
w: lu- * ia, Child|Je- sus, Christ the|Lord.|
w: lu- * ia, Child|Je- sus, Christ the|Lord.|
V:2
 x2 | x8 | x8 | x8 | x8 | x8 | x4 E2 x2 | x8 | x8 | x8 | x4 G2 B2 | x8 | x2 D2 x4 | x8 | x8 | x8 | %16
 x8 | x7 E | E6 |] %19
V:3
 B,2 | C2 B,2 G,2 A,2 | B,6 [E,G,]2 | A,2 B,2 C2 [F,C]2 | B,3 [=A,C] B,2 B,2 | %5
 B,2 [B,E]2 [B,C]2 B,2 | [B,,A,]4 [E,G,]2 [E,G,]2 | G,3 [G,B,] C2 [F,C]2 | B,3 [=A,C] B,2 [B,D]2 | %9
 [B,,B,]2 [C,=A,]2 [D,G,]3 [D,C] | [G,C]4 [G,B,]2 B,2 | [E,B,]3 [E,B,] [G,B,]2 A,2 | %12
 [F,C]2 [B,,B,]2 [E,B,]2 [G,B,]2 | C2 [G,B,]2 [A,C]2 [F,C]2 | %14
 [G,=B,]3 [G,B,] [C,C]2 [F,A,]>[F,A,] | B,4 [E,B,]2 C>C | D4 [G,D]2 [C,C]2 | %17
 [F,C]2 [F,B,]2 [B,,A,]3 [E,G,] | [E,G,]6 |] %19
V:4
 x2 | x8 | x8 | A,2 B,2 C2 x2 | B,3 B,2 B,2 x | B,2 x2 B,2 x2 | x8 | C,2 (E, C2) x3 | B,3 B,2 x3 | %9
 x8 | x6 B,2 | x6 A,2 | x8 | C2 x6 | x8 | (G,3 F,) C>C x2 | (B,3 =A,) x4 | x8 | x6 |] %19

